resources/haticons/SVG/local_atm.svg

<!-- Generated by IcoMoon.io -->
<svg version="1.1" xmlns="http://www.w3.org/2000/svg" width="24" height="24" viewBox="0 0 24 24">
<title>local_atm</title>
<path d="M20.016 18v-12h-16.031v12h16.031zM20.016 3.984q0.844 0 1.406 0.586t0.563 1.43v12q0 0.844-0.563 1.43t-1.406 0.586h-16.031q-0.844 0-1.406-0.586t-0.563-1.43v-12q0-0.844 0.563-1.43t1.406-0.586h16.031zM11.016 17.016v-1.031h-2.016v-1.969h3.984v-1.031h-3q-0.422 0-0.703-0.281t-0.281-0.703v-3q0-0.422 0.281-0.703t0.703-0.281h1.031v-1.031h1.969v1.031h2.016v1.969h-3.984v1.031h3q0.422 0 0.703 0.281t0.281 0.703v3q0 0.422-0.281 0.703t-0.703 0.281h-1.031v1.031h-1.969z"></path>
</svg>

<svg xmlns="http://www.w3.org/2000/svg" width="24" height="24"><path d="M20.016 18V6H3.985v12h16.031zm0-14.016q.844 0 1.406.586T21.985 6v12q0 .844-.563 1.43t-1.406.586H3.985q-.844 0-1.406-.586T2.016 18V6q0-.844.563-1.43t1.406-.586h16.031zm-9 13.032v-1.031H9v-1.969h3.984v-1.031h-3q-.422 0-.703-.281T9 12.001v-3q0-.422.281-.703t.703-.281h1.031V6.986h1.969v1.031H15v1.969h-3.984v1.031h3q.422 0 .703.281t.281.703v3q0 .422-.281.703t-.703.281h-1.031v1.031h-1.969z"/></svg>
